!!!OTL: "Der wandernde Schneider" ES WOLLT EIN SCHNEIDER WANDERN
!!!ARE: Europa, Mitteleuropa, Deutschland, Friesland
!!!SCT: Z1346
!!!YEM: Copyright 1995, estate of Helmut Schaffrath.
**kern
*ICvox
*Ivox
*M6/8
*k[b-e-]
*B-:
{8f
=1
4f
8b-
8cc
8b-
8cc
=2
4.dd
4dd
8dd
=3
8ff
8dd
8b-
8dd
8cc
8cc
=4
4.b-
4r}
{8f
=5
4f
8b-
8cc
8b-
8cc
=6
4.dd
4dd
8dd
=7
8ff
8dd
8b-
8dd
8cc
8cc
=8
4.b-
4.r}
=9
{8dd
8dd
8ff
8.cc
16b-
8a
=10
4b-
2r
=11
8b-
8g
8cc
8.a
16b-
16a
16g
=12
4f
4.r}
{8f
=13
8f
8b-
8b-
8cc
8b-
8cc
=14
4.dd
4dd
8dd
=15
8ff
8dd
8b-
8dd
8cc
8cc
=16
4.b-
4r}
==
!!!AGN: Zech -, Schalks - Lied
!!!ONB: ESAC (Essen Associative Code) Database: ZUCCAL
!!!AMT: compound duple
!!!AIN: vox
!!!EED: Helmut Schaffrath
!!!EEV: 1.0
*-
